raw/symbols/gme.svg

<svg width="36" height="36" viewBox="0 0 36 36" fill="none" xmlns="http://www.w3.org/2000/svg">
<rect width="36" height="36" rx="18" fill="#BBC0DA"/>
<path d="M17.0533 15.9992V15.3614C17.0533 10.9486 14.4405 9.75537 11.5501 9.75537C8.65961 9.75537 6.04688 11.3189 6.04688 15.7317V20.2578C6.04688 23.2202 7.30181 26.2341 10.6655 26.2341C12.2084 26.2341 13.1959 25.4935 13.6279 24.7838L13.9777 26.0078H17.0533V17.5627H11.7147V20.2783H12.9079V20.8544C12.9079 22.2327 12.7125 23.5083 11.8484 23.5083C10.974 23.5083 10.7889 22.243 10.7889 20.8544V15.0529C10.7889 13.7053 10.8815 12.471 11.5501 12.471C12.2187 12.471 12.3113 13.7053 12.3113 15.0529V15.9992H17.0533ZM25.2525 14.95H29.6344V14.2711C29.6344 11.144 27.5461 9.75537 24.45 9.75537C21.4875 9.75537 19.2656 11.4115 19.2656 14.3122C19.2656 19.7434 25.417 18.5502 25.417 22.2327C25.417 23.1997 25.0364 23.5185 24.5733 23.5185C24.1106 23.5185 23.73 23.1997 23.73 22.2327V20.8955H19.2966V21.5333C19.2966 24.8044 21.4359 26.2444 24.6248 26.2444C27.6797 26.2444 29.9531 24.5472 29.9531 21.5024C29.9531 15.4437 23.6269 17.1204 23.6269 13.7671C23.6269 12.8001 24.0178 12.4813 24.4397 12.4813C24.8513 12.4813 25.2525 12.8001 25.2525 13.7671V14.95Z" fill="#030303"/>
</svg>

<svg xmlns="http://www.w3.org/2000/svg" width="36" height="36" fill="none"><rect width="36" height="36" fill="#BBC0DA" rx="18"/><path fill="#030303" d="M17.053 16v-.639c0-4.412-2.613-5.606-5.503-5.606s-5.503 1.564-5.503 5.977v4.526c0 2.962 1.255 5.976 4.619 5.976 1.542 0 2.53-.74 2.962-1.45l.35 1.224h3.075v-8.445h-5.338v2.715h1.193v.576c0 1.379-.195 2.654-1.06 2.654-.874 0-1.06-1.265-1.06-2.654v-5.801c0-1.348.094-2.582.762-2.582.669 0 .761 1.234.761 2.582v.946h4.742Zm8.2-1.05h4.381v-.679c0-3.127-2.088-4.516-5.184-4.516-2.962 0-5.184 1.656-5.184 4.557 0 5.431 6.151 4.238 6.151 7.92 0 .968-.38 1.287-.844 1.287-.462 0-.843-.32-.843-1.286v-1.338h-4.433v.638c0 3.271 2.139 4.711 5.328 4.711 3.055 0 5.328-1.697 5.328-4.742 0-6.058-6.326-4.382-6.326-7.735 0-.967.39-1.286.813-1.286.411 0 .813.32.813 1.286v1.183Z"/></svg>
